TV/Source/Nova Sport 1 HD - Original.svg

<svg height="2.28741mm" viewBox="0 0 6.1545248 2.28741" width="6.154525mm" xmlns="http://www.w3.org/2000/svg" xmlns:xlink="http://www.w3.org/1999/xlink"><clipPath id="a"><path d="m226.003 201.278h17.446v6.484h-17.446z"/></clipPath><g transform="translate(-78.565595 -165.07653)"><path d="m78.565595 167.36394h5.087055v-2.28741h-5.087055z"/><g clip-path="url(#a)" transform="matrix(.35277777 0 0 -.35277777 -1.16324 238.37035)"><g transform="translate(227.3396 206.4351)"><path d="m0 0h .291v-.152c.08.107.208.174.362.174.278 0 .468-.201.468-.476v-.698h-.291v.646c0 .155-.112.264-.269.264-.156 0-.27-.109-.27-.264v-.646h-.291z" fill="#fff"/></g><g transform="translate(229.2415 205.5269)"><path d="m0 0c .179 0 .315.143.315.333 0 .188-.136.331-.315.331s-.313-.143-.313-.331c0-.19.134-.333.313-.333m0 .931c.349 0 .615-.26.615-.598 0-.34-.266-.599-.615-.599s-.615.259-.615.599c0 .338.266.598.615.598" fill="#fff"/></g><g transform="translate(229.8455 206.4351)"><path d="m0 0h .313l.318-.848.32.848h.293l-.459-1.152h-.326z" fill="#fff"/></g><g transform="translate(231.6997 205.5269)"><path d="m0 0c .179 0 .315.143.315.333 0 .188-.136.331-.315.331s-.313-.143-.313-.331c0-.19.134-.333.313-.333m.315-.101c-.091-.103-.219-.165-.373-.165-.316 0-.557.259-.557.599 0 .338.241.598.557.598.154 0 .282-.063.373-.168v.145h.291v-1.152h-.291z" fill="#fff"/></g><g transform="translate(238.738 203.0794)"><path d="m0 0v1.736l-.946-.301v-.465l.419.092v-1.062h-.419v-.465h1.295v.465z" fill="#d11b39"/></g><g transform="translate(227.7995 203.3011)"><path d="m0 0c .034-.155.133-.236.322-.236.162 0 .264.062.264.171 0 .372-1.073.121-1.073.911 0 .382.351.667.794.667.453 0 .756-.245.809-.611l-.533-.108c-.034.161-.127.235-.295.235-.142 0-.229-.062-.229-.167 0-.341 1.073-.093 1.073-.912 0-.381-.36-.669-.825-.669-.468 0-.794.254-.84.614z" fill="#fff"/></g><g transform="translate(230.2302 203.7445)"><path d="m0 0c .18 0 .295.121.295.285 0 .168-.115.289-.295.289h-.431v-.574zm-.958 1.039h.958c.515 0 .84-.323.84-.76s-.325-.744-.84-.744h-.431v-.667h-.527z" fill="#fff"/></g><g transform="translate(232.419 203.0655)"><path d="m0 0c .341 0 .601.276.601.632 0 .357-.26.633-.601.633s-.602-.276-.602-.633c0-.356.261-.632.602-.632m0 1.749c.648 0 1.147-.487 1.147-1.117 0-.629-.499-1.116-1.147-1.116s-1.147.487-1.147 1.116c0 .63.499 1.117 1.147 1.117" fill="#fff"/></g><g transform="translate(234.8372 203.8065)"><path d="m0 0c .158 0 .26.109.26.254 0 .149-.102.258-.26.258h-.434v-.512zm-.22-.481h-.214v-.713h-.527v2.171h.961c.493 0 .806-.31.806-.729 0-.304-.167-.549-.443-.663l.505-.779h-.626z" fill="#fff"/></g><g transform="translate(236.406 204.3181)"><path d="m0 0h-.636v.465h1.799v-.465h-.636v-1.705h-.527z" fill="#fff"/></g><g transform="translate(241.0006 207.7612)"><path d="m0 0h .289v-.467h.509v.467h.289v-1.189h-.289v.467h-.509v-.467h-.289z"/></g><g transform="translate(242.8139 206.8267)"><path d="m0 0c .202 0 .336.143.336.34 0 .199-.134.34-.336.34h-.18v-.68zm-.469.934h.494c.354 0 .61-.258.61-.594 0-.337-.256-.595-.61-.595h-.494z"/></g></g></g></svg>

<?xml version="1.0" encoding="UTF-8" standalone="no"?>
<!-- Created with Inkscape (http://www.inkscape.org/) -->

<svg
   xmlns:dc="http://purl.org/dc/elements/1.1/"
   xmlns:cc="http://creativecommons.org/ns#"
   xmlns:rdf="http://www.w3.org/1999/02/22-rdf-syntax-ns#"
   xmlns:svg="http://www.w3.org/2000/svg"
   xmlns="http://www.w3.org/2000/svg"
   xmlns:sodipodi="http://sodipodi.sourceforge.net/DTD/sodipodi-0.dtd"
   xmlns:inkscape="http://www.inkscape.org/namespaces/inkscape"
   width="6.1545248mm"
   height="2.28741mm"
   viewBox="0 0 6.1545248 2.28741"
   version="1.1"
   id="svg40559"
   inkscape:version="0.92.0 r15299"
   sodipodi:docname="Nova Sport 1 HD - Original.svg">
  <defs
     id="defs40553">
    <clipPath
       clipPathUnits="userSpaceOnUse"
       id="clipPath74730">
      <path
         d="m 226.003,201.278 h 17.446 v 6.484 h -17.446 z"
         id="path74728"
         inkscape:connector-curvature="0" />
    </clipPath>
  </defs>
  <sodipodi:namedview
     id="base"
     pagecolor="#ffffff"
     bordercolor="#666666"
     borderopacity="1.0"
     inkscape:pageopacity="0.0"
     inkscape:pageshadow="2"
     inkscape:zoom="22.4"
     inkscape:cx="9.7778938"
     inkscape:cy="3.8310954"
     inkscape:document-units="mm"
     inkscape:current-layer="layer1"
     showgrid="false"
     fit-margin-top="0"
     fit-margin-left="0"
     fit-margin-right="0"
     fit-margin-bottom="0"
     inkscape:window-width="1920"
     inkscape:window-height="1017"
     inkscape:window-x="-8"
     inkscape:window-y="-8"
     inkscape:window-maximized="1" />
  <metadata
     id="metadata40556">
    <rdf:RDF>
      <cc:Work
         rdf:about="">
        <dc:format>image/svg+xml</dc:format>
        <dc:type
           rdf:resource="http://purl.org/dc/dcmitype/StillImage" />
        <dc:title></dc:title>
      </cc:Work>
    </rdf:RDF>
  </metadata>
  <g
     inkscape:label="Layer 1"
     inkscape:groupmode="layer"
     id="layer1"
     transform="translate(-78.565595,-165.07653)">
    <path
       d="m 78.565595,167.36394 h 5.087055 v -2.28741 h -5.087055 z"
       style="fill:#000000;fill-opacity:1;fill-rule:nonzero;stroke:none;stroke-width:0.35277775"
       id="path74722"
       inkscape:connector-curvature="0" />
    <g
       transform="matrix(0.35277777,0,0,-0.35277777,-1.1632404,238.37035)"
       id="g74724">
      <g
         id="g74726"
         clip-path="url(#clipPath74730)">
        <g
           id="g74732"
           transform="translate(227.3396,206.4351)">
          <path
             d="m 0,0 h 0.291 v -0.152 c 0.08,0.107 0.208,0.174 0.362,0.174 0.278,0 0.468,-0.201 0.468,-0.476 V -1.152 H 0.83 v 0.646 c 0,0.155 -0.112,0.264 -0.269,0.264 -0.156,0 -0.27,-0.109 -0.27,-0.264 V -1.152 H 0 Z"
             style="fill:#ffffff;fill-opacity:1;fill-rule:nonzero;stroke:none"
             id="path74734"
             inkscape:connector-curvature="0" />
        </g>
        <g
           id="g74736"
           transform="translate(229.2415,205.5269)">
          <path
             d="M 0,0 C 0.179,0 0.315,0.143 0.315,0.333 0.315,0.521 0.179,0.664 0,0.664 -0.179,0.664 -0.313,0.521 -0.313,0.333 -0.313,0.143 -0.179,0 0,0 m 0,0.931 c 0.349,0 0.615,-0.26 0.615,-0.598 0,-0.34 -0.266,-0.599 -0.615,-0.599 -0.349,0 -0.615,0.259 -0.615,0.599 0,0.338 0.266,0.598 0.615,0.598"
             style="fill:#ffffff;fill-opacity:1;fill-rule:nonzero;stroke:none"
             id="path74738"
             inkscape:connector-curvature="0" />
        </g>
        <g
           id="g74740"
           transform="translate(229.8455,206.4351)">
          <path
             d="M 0,0 H 0.313 L 0.631,-0.848 0.951,0 H 1.244 L 0.785,-1.152 H 0.459 Z"
             style="fill:#ffffff;fill-opacity:1;fill-rule:nonzero;stroke:none"
             id="path74742"
             inkscape:connector-curvature="0" />
        </g>
        <g
           id="g74744"
           transform="translate(231.6997,205.5269)">
          <path
             d="M 0,0 C 0.179,0 0.315,0.143 0.315,0.333 0.315,0.521 0.179,0.664 0,0.664 -0.179,0.664 -0.313,0.521 -0.313,0.333 -0.313,0.143 -0.179,0 0,0 m 0.315,-0.101 c -0.091,-0.103 -0.219,-0.165 -0.373,-0.165 -0.316,0 -0.557,0.259 -0.557,0.599 0,0.338 0.241,0.598 0.557,0.598 0.154,0 0.282,-0.063 0.373,-0.168 V 0.908 H 0.606 V -0.244 H 0.315 Z"
             style="fill:#ffffff;fill-opacity:1;fill-rule:nonzero;stroke:none"
             id="path74746"
             inkscape:connector-curvature="0" />
        </g>
        <g
           id="g74748"
           transform="translate(238.738,203.0794)">
          <path
             d="M 0,0 V 1.736 L -0.946,1.435 V 0.97 l 0.419,0.092 V 0 H -0.946 V -0.465 H 0.349 V 0 Z"
             style="fill:#d11b39;fill-opacity:1;fill-rule:nonzero;stroke:none"
             id="path74750"
             inkscape:connector-curvature="0" />
        </g>
        <g
           id="g74752"
           transform="translate(227.7995,203.3011)">
          <path
             d="m 0,0 c 0.034,-0.155 0.133,-0.236 0.322,-0.236 0.162,0 0.264,0.062 0.264,0.171 0,0.372 -1.073,0.121 -1.073,0.911 0,0.382 0.351,0.667 0.794,0.667 0.453,0 0.756,-0.245 0.809,-0.611 L 0.583,0.794 C 0.549,0.955 0.456,1.029 0.288,1.029 0.146,1.029 0.059,0.967 0.059,0.862 c 0,-0.341 1.073,-0.093 1.073,-0.912 0,-0.381 -0.36,-0.669 -0.825,-0.669 -0.468,0 -0.794,0.254 -0.84,0.614 z"
             style="fill:#ffffff;fill-opacity:1;fill-rule:nonzero;stroke:none"
             id="path74754"
             inkscape:connector-curvature="0" />
        </g>
        <g
           id="g74756"
           transform="translate(230.2302,203.7445)">
          <path
             d="M 0,0 C 0.18,0 0.295,0.121 0.295,0.285 0.295,0.453 0.18,0.574 0,0.574 H -0.431 V 0 Z M -0.958,1.039 H 0 c 0.515,0 0.84,-0.323 0.84,-0.76 0,-0.437 -0.325,-0.744 -0.84,-0.744 h -0.431 v -0.667 h -0.527 z"
             style="fill:#ffffff;fill-opacity:1;fill-rule:nonzero;stroke:none"
             id="path74758"
             inkscape:connector-curvature="0" />
        </g>
        <g
           id="g74760"
           transform="translate(232.419,203.0655)">
          <path
             d="M 0,0 C 0.341,0 0.601,0.276 0.601,0.632 0.601,0.989 0.341,1.265 0,1.265 -0.341,1.265 -0.602,0.989 -0.602,0.632 -0.602,0.276 -0.341,0 0,0 m 0,1.749 c 0.648,0 1.147,-0.487 1.147,-1.117 0,-0.629 -0.499,-1.116 -1.147,-1.116 -0.648,0 -1.147,0.487 -1.147,1.116 0,0.63 0.499,1.117 1.147,1.117"
             style="fill:#ffffff;fill-opacity:1;fill-rule:nonzero;stroke:none"
             id="path74762"
             inkscape:connector-curvature="0" />
        </g>
        <g
           id="g74764"
           transform="translate(234.8372,203.8065)">
          <path
             d="M 0,0 C 0.158,0 0.26,0.109 0.26,0.254 0.26,0.403 0.158,0.512 0,0.512 H -0.434 V 0 Z M -0.22,-0.481 H -0.434 V -1.194 H -0.961 V 0.977 H 0 c 0.493,0 0.806,-0.31 0.806,-0.729 0,-0.304 -0.167,-0.549 -0.443,-0.663 L 0.868,-1.194 H 0.242 Z"
             style="fill:#ffffff;fill-opacity:1;fill-rule:nonzero;stroke:none"
             id="path74766"
             inkscape:connector-curvature="0" />
        </g>
        <g
           id="g74768"
           transform="translate(236.406,204.3181)">
          <path
             d="M 0,0 H -0.636 V 0.465 H 1.163 V 0 H 0.527 V -1.705 H 0 Z"
             style="fill:#ffffff;fill-opacity:1;fill-rule:nonzero;stroke:none"
             id="path74770"
             inkscape:connector-curvature="0" />
        </g>
        <g
           id="g74772"
           transform="translate(241.0006,207.7612)">
          <path
             d="M 0,0 H 0.289 V -0.467 H 0.798 V 0 H 1.087 V -1.189 H 0.798 v 0.467 H 0.289 V -1.189 H 0 Z"
             style="fill:#000000;fill-opacity:1;fill-rule:nonzero;stroke:none"
             id="path74774"
             inkscape:connector-curvature="0" />
        </g>
        <g
           id="g74776"
           transform="translate(242.8139,206.8267)">
          <path
             d="M 0,0 C 0.202,0 0.336,0.143 0.336,0.34 0.336,0.539 0.202,0.68 0,0.68 H -0.18 V 0 Z m -0.469,0.934 h 0.494 c 0.354,0 0.61,-0.258 0.61,-0.594 0,-0.337 -0.256,-0.595 -0.61,-0.595 h -0.494 z"
             style="fill:#000000;fill-opacity:1;fill-rule:nonzero;stroke:none"
             id="path74778"
             inkscape:connector-curvature="0" />
        </g>
      </g>
    </g>
  </g>
</svg>
